static/app-icons/light-theme/LILOX.svg

<svg xmlns="http://www.w3.org/2000/svg" xmlns:xlink="http://www.w3.org/1999/xlink" viewBox="0 0 32 32"><defs><linearGradient id="linear-gradient" x1="-87.5" y1="7418" x2="-78.5" y2="7418" gradientTransform="translate(104.5 -7412.5)" gradientUnits="userSpaceOnUse"><stop offset="0" stop-opacity="0"/><stop offset=".8"/></linearGradient><linearGradient id="linear-gradient-2" x1="-3731" y1="3652.5" x2="-3722" y2="3652.5" gradientTransform="translate(3732 -3642)" xlink:href="#linear-gradient"/><linearGradient id="linear-gradient-3" x1="52.5" y1="-12" x2="58.5" y2="-12" gradientTransform="translate(-46.5 38.5)" xlink:href="#linear-gradient"/><linearGradient id="linear-gradient-4" x1="3672" y1="3744.5" x2="3681" y2="3744.5" gradientTransform="translate(-3650 -3723)" xlink:href="#linear-gradient"/><linearGradient id="linear-gradient-5" y1="32" x2="32" gradientUnits="userSpaceOnUse"><stop offset=".1" stop-color="#08bdba"/><stop offset=".9" stop-color="#0f62fe"/></linearGradient><style>.cls-1{fill:#fff}.cls-8{fill:#001d6c}</style><mask id="mask" x="0" y="0" width="32" height="32" maskUnits="userSpaceOnUse"><path class="cls-1" d="M28 12h-2V8a2 2 0 00-2-2h-6V4h6a4.006 4.006 0 014 4z"/><path transform="rotate(180 21.5 5.5)" fill="url(#linear-gradient)" d="M17 3h9v5h-9z"/><path class="cls-1" d="M6 14H4V8a4.006 4.006 0 014-4h4v2H8a2 2 0 00-2 2z"/><path transform="rotate(90 5.5 10.5)" fill="url(#linear-gradient-2)" d="M1 8h9v5H1z"/><path class="cls-1" d="M11 28H8a4.006 4.006 0 01-4-4v-4h2v4a2 2 0 002 2h3z"/><path fill="url(#linear-gradient-3)" d="M6 24h6v5H6z"/><path class="cls-1" d="M24 28h-1v-2h1a2 2 0 002-2v-6h2v6a4.006 4.006 0 01-4 4z"/><path transform="rotate(-90 26.5 21.5)" fill="url(#linear-gradient-4)" d="M22 19h9v5h-9z"/></mask></defs><g id="Layer_2" data-name="Layer 2"><g id="Light_theme_icons" data-name="Light theme icons"><g mask="url(#mask)"><path fill="url(#linear-gradient-5)" d="M0 0h32v32H0z"/></g><path class="cls-8" d="M5 18a2 2 0 112-2 2 2 0 01-2 2zM27 18a2 2 0 112-2 2 2 0 01-2 2zM16 7a2 2 0 112-2 2 2 0 01-2 2zM19 30h-6a2 2 0 01-2-2V16a2 2 0 012-2h6a2 2 0 012 2v12a2 2 0 01-2 2zm-6-14v12h6V16z"/></g></g></svg>

<svg xmlns="http://www.w3.org/2000/svg" xmlns:xlink="http://www.w3.org/1999/xlink" viewBox="0 0 32 32"><defs><style>.cls-1{fill:#fff;}.cls-2{fill:url(#linear-gradient);}.cls-3{fill:url(#linear-gradient-2);}.cls-4{fill:url(#linear-gradient-3);}.cls-5{fill:url(#linear-gradient-4);}.cls-6{mask:url(#mask);}.cls-7{fill:url(#linear-gradient-5);}.cls-8{fill:#001d6c;}</style><linearGradient id="linear-gradient" x1="-87.5" y1="7418" x2="-78.5" y2="7418" gradientTransform="translate(104.5 -7412.5)" gradientUnits="userSpaceOnUse"><stop offset="0" stop-opacity="0"/><stop offset="0.8"/></linearGradient><linearGradient id="linear-gradient-2" x1="-3731" y1="3652.5" x2="-3722" y2="3652.5" gradientTransform="translate(3732 -3642)" xlink:href="#linear-gradient"/><linearGradient id="linear-gradient-3" x1="52.5" y1="-12" x2="58.5" y2="-12" gradientTransform="translate(-46.5 38.5)" xlink:href="#linear-gradient"/><linearGradient id="linear-gradient-4" x1="3672" y1="3744.5" x2="3681" y2="3744.5" gradientTransform="translate(-3650 -3723)" xlink:href="#linear-gradient"/><mask id="mask" x="0" y="0" width="32" height="32" maskUnits="userSpaceOnUse"><path class="cls-1" d="M28,12H26V8a2,2,0,0,0-2-2H18V4h6a4.006,4.006,0,0,1,4,4Z"/><rect class="cls-2" x="17" y="3" width="9" height="5" transform="translate(43 11) rotate(180)"/><path class="cls-1" d="M6,14H4V8A4.006,4.006,0,0,1,8,4h4V6H8A2,2,0,0,0,6,8Z"/><rect class="cls-3" x="1" y="8" width="9" height="5" transform="translate(16 5) rotate(90)"/><path class="cls-1" d="M11,28H8a4.006,4.006,0,0,1-4-4V20H6v4a2,2,0,0,0,2,2h3Z"/><rect class="cls-4" x="6" y="24" width="6" height="5"/><path class="cls-1" d="M24,28H23V26h1a2,2,0,0,0,2-2V18h2v6A4.006,4.006,0,0,1,24,28Z"/><rect class="cls-5" x="22" y="19" width="9" height="5" transform="translate(5 48) rotate(-90)"/></mask><linearGradient id="linear-gradient-5" y1="32" x2="32" gradientUnits="userSpaceOnUse"><stop offset="0.1" stop-color="#08bdba"/><stop offset="0.9" stop-color="#0f62fe"/></linearGradient></defs><g id="Layer_2" data-name="Layer 2"><g id="Light_theme_icons" data-name="Light theme icons"><g class="cls-6"><rect class="cls-7" width="32" height="32"/></g><path class="cls-8" d="M5,18a2,2,0,1,1,2-2A2,2,0,0,1,5,18Z"/><path class="cls-8" d="M27,18a2,2,0,1,1,2-2A2,2,0,0,1,27,18Z"/><path class="cls-8" d="M16,7a2,2,0,1,1,2-2A2,2,0,0,1,16,7Z"/><path class="cls-8" d="M19,30H13a2,2,0,0,1-2-2V16a2,2,0,0,1,2-2h6a2,2,0,0,1,2,2V28A2,2,0,0,1,19,30ZM13,16V28h6V16Z"/></g></g></svg>
